X:44
T:Jim's Jig
C: Jim Bell 1994
M:6/8
K:G
"G"DEG AGG|BGG AGG|DEG AGG|"D"dBA GED|
"G"DEG AGG|BGG AGG|"D"ded BAG|EDE "G"G3:|
|:"Em"B2B d2d|edB BAB|GBB Bde|"D"fgf "Em"e3|
"Em"B2B d2d|edB BAB|"D"ded BAG|EDE "G"G3:|
